X: 137
T:Charlie Lennon's Mazurka
N: page 45
N: heptatonic
R:Mazurka
B:Sullivan's Session Tunes Book 2
M:3/4
L:1/8
K:G
DG|"G"B2BA GB|"D"d2d2 AB|"C"cBce dc|"G"Bd g2 DG|\
B2BA GB|"D"d4 AB|"C"cBcA FA|"G"G4:|
gf|"Em"e2 cg fe|"D"d2 d2 AB|"C"cBce dc|"G"Bd g2 gf|\
"Em"e2 eg fe|"D"d4 AB|"C"cBcA FA|"G"G4:|]
